X: 102
T: Mrs Ballantine's Reel
C: attr. John French (1753-1803)
R: reel
B: "John French Collection", John French ed. p.10 #2
S: http://www.heallan.com/french.asp
Z: 2012 John Chambers <jc:trillian.mit.edu>
M: C
L: 1/8
K: Amix
c | (A,EA)f (ecA)E | FAEC B,B-Bc | (A,EA)f (ecA)E | FAB,E A,A-A :|
f | (ef/g/a)c ecac | eaca b(BBf) | (ef/g/)c ecac | dBbg a(AAf) |
    (ef/g/a)c ecac | eaca b(BBf) | ecac eace | dBbg aA-A |]
%
% %center -

%%sep 2 1 500
%%sep 1 1 500

